!!!ONB: MCCC : IJH0412_01 : Extracted Monophonic Melody
!!!COM: Haydn, Joseph
!!!OPR: String Quartet in B-flat major
!!!OMV: 1
!!!SCT: Hob.III:67 ; Op.64 No.3
!!!ODT: 1790///
**kern
*thru
*k[b-e-]
*B-:
*clefF
*M3/4
8dd
8ee-
8dd
=1
8dd
8cc
8b-
8ff
8ee
8ff
=2
16cc
16b
16cc
16dd
8cc
8dd
8ee-
8ff
=3
8ff#
8gg
8ff
8ddd
8aa
8bb-
=4
8ff#
8gg
8cc
8ee-
16dd
16cc
16b-
16a
=5
8b-
8f
8d
8dd
8ee-
8dd
=6
8dd
8cc
8b-
8ddd
16ccc
16bb-
16aa
16gg
=7
8ff
8ee-
8dd
4.r
=8
2.r
=9
2.r
=10
8ff
16ff
16ee
8ff
16ff
16ee
8ff
16ff
16ee
=11
16ff
16ee
16ff
16gg
16ff
16ee
16ff
16gg
16ff
16ee-
16dd
16cc
=12
8b-
16b-
16a
8b-
16b-
16a
8b-
16b-
16dd
=13
8cc
8cc
4.cc
16dd
16ee-
=14
8ff
16ff
16ee
8ff
16ff
16ee
8ff
16ff
16ee
=15
16ff
16ee
16ff
16gg
16ff
16ee
16ff
16gg
16ff
16ee-
16dd
16cc
=16
8b-
16b-
16a
16b-
16cc
16dd
16b-
16cc
16dd
16ee-
16cc
=17
4b-
8r
8dd
8ee-
8dd
=18
8dd
8cc
8b-
8ff
8ee
8ff
=19
4ff#
8gg
8bb-
8ccc
8bb-
=20
8bb-
8aa
8gg
8gg
8bb-
8ddd
=21
8ddd
8ccc
8r
8aa
8bb-
8aa
=22
8aa
8gg
8ff
8ff
8aa
8ccc
=23
4ccc
8bb-
8aa
8bb-
8aa
=24
8aa
8gg
8ff
8ff
8gg
8ff
=25
8ff
8ee
8dd
8cc
8dd
8cc
=26
8cc
8b
8b-
8a
8b-
8a
=27
8a
8a-
8g
8f
8g
8a
=28
16b-
16g
16a
16b-
16cc
16dd
16ee
16ff
16gg
16aa
16bb-
16ccc
=29
8ddd
8ccc
8ccc
8ccc
8ccc
8ccc
=30
8ddd
8ccc
8ccc
8ccc
8ccc
8ccc
=31
8ddd
8ccc
8ccc
8ccc
8ccc
8ccc
=32
16ddd
16ccc
16ddd
16ccc
8ee
4.r
=33
2aa
8ccc
8ff
=34
2ee
8bb-
8gg
=35
4ff
4aa
16gg
16ff
16ee
16dd
=36
4cc
2r
=37
2aa-
8ccc
8ff
=38
2ee
8bb-
8gg
=39
2aa-[
8aa-]
8gg-
=40
2ff
4ee-
=41
4dd-
4cc
4b
=42
4cc
8r
8ccc
8ddd
8ccc
=43
8bb
4r
8bb-
8ccc
8bb-
=44
8aa
4r
8aa
8bb-
8aa
=45
8gg
4r
8gg
8aa
8gg
=46
8ff
4r
8ff
8gg
8ff
=47
8ee
8dd
8cc
8b-
8a
8g
=48
4f
2r
=49
2.r
=50
2.f
=51
2.e
=52
4f
4cc
4ff[
=53
4ff]
4ee
4gg[
=54
4gg]
4ff
4aa[
=55
4aa]
4gg
4bb-[
=56
16bb-]
16aa
16gg
16aa
16bb-
16aa
16gg
16ff
16ee
16dd
16cc
16b-
=57
16a
16b-
16cc
16b-
16a
16g
16f
16e
16d
16c
16B-
16A
=58
8G
8B-
8d
8g
8b-
8dd
=59
8B
8d
8f
8a-
8b
8dd
=60
8ff
16gg#
16aa
16ee
16ff
16b
16cc
16g#
16a
16e
16f
=61
4c
4.ccc
8bb-
=62
8aa
8ccc
4.gg
16ff
16gg
=63
8ff
8aa
4.b-
16a
16b-
=64
8a
8cc
4.e
16d
16e
=65
4f
8r
8a
8b-
8a
=66
8a
8g
8f
8cc
8dd
8cc
=67
8cc
8b-
8a
8cc
8ee-
8dd
=68
8ff
8ee-
8gg
4r
16r
16ff
=69
8ee-
4r
8dd
8ee-
8ff
=70
8aa-
8gg
8ff
4r
8ff
=71
8gg
8aa-
8bb-
8ee-
8ff
8ee-
=72
8ee-
8dd
8cc
8cc
8dd
8cc
=73
8cc
8b
8aa-
4r
8b
=74
8cc
8dd
8ee-
4r
8ee
=75
8ff
8gg
8aa-
8aa-
8bb-
8aa-
=76
8aa-
8gg
8ff
8ff
8dd-
8b
=77
4b
8cc
4.r
=78
2.r
=79
2.r
=80
8ee-
16ee-
16dd
8ee-
16ee-
16dd
8ee-
16ee-
16dd
=81
16ee-
16dd
16ee-
16ff
16ee-
16dd
16ee-
16ff
16ee-
16dd-
16cc
16b-
=82
8a-
16a-
16g
8a-
16a-
16g
8a-
16a-
16cc
=83
8b-
8b-
4.b-
16cc
16dd-
=84
8ee-
16ee-
16dd
8ee-
16ee-
16dd
8ee-
16ee-
16dd
=85
16ee-
16dd
16ee-
16ff
16ee-
16dd
16ee-
16ff
16ee-
16dd-
16cc
16b-
=86
4a
4ccc
4ee-
=87
2dd-
8ff
8b-
=88
2a
8ee-
8dd-
=89
4.dd-
8ff
16ee-
16dd-
16cc
16b-
=90
8b-
8a
4a
4r
=91
2dd-
8ff
8b-
=92
2a
8ee-
8dd-
=93
4.dd-
8ff
16ee-
16dd-
16cc
16b-
=94
8a-
8g
4.g
8b-
=95
8b-
8a-
4.a-
8cc
=96
8cc
8b-
4.b-
8dd-
=97
2.cc-
=98
2.cc
=99
8cc
16cc
16b
8cc
16cc
16b
8cc
16cc
16b
=100
2.cc
=101
8cc
16cc
16b
8cc
16cc
16b
8cc
16cc
16dd
=102
8b
16gg
16ff#
8gg
16dd
16cc#
8dd
16b
16a
=103
8b
16g
16f#
8g
16B
16c
16d
16c
16B
16A
=104
8G
16g
16f#
8g
4.r
=105
4e-
2r
=106
4f
2r
=107
16c
16e-
16g
16cc
16ee-
16gg
16ff
16ee-
16dd
16cc
16b
16cc
=108
16b
16dd
16ff
16aa-
16gg
16ff
16ee-
16dd
16cc
16b
16cc
16dd
=109
4ee-
2r
=110
2.r
=111
16f
16a-
16cc
16ff
16aa-
16ccc
16bb-
16aa-
16gg
16ff
16ee
16ff
=112
16ee
16gg
16bb-
16ddd-
16ccc
16bb-
16aa-
16gg
16ff
16ee
16ff
16gg
=113
2.aa-
=114
2.aa
=115
2.aa
=116
16bb-
16g
16b-
16dd
16ff#
16gg
16bb-
16ddd
16ccc
16bb-
16aa
16gg
=117
4ddd
8r
8dd
8ee-
8dd
=118
4cc
8r
8cc
8dd
8cc
=119
8b-
8gg
8ee-
8cc
8b-
8a
=120
4g
8r
8dd
8ee-
8dd
=121
8dd
8cc
8b-
8b-
8cc
8b-
=122
8b-
8a
8g
8dd
8ee-
8dd
=123
8r
8dd
8ee-
8dd
8r
8dd
=124
8ee-
8dd
8ee-
8dd
8ee-
8dd
=125
8ee-
8dd
8ee-
8dd
8ee-
8dd
=126
8dd
8cc
8b-
8ff
8ee
8ff
=127
16cc
16b
16cc
16dd
8cc
8dd
8ee-
8ff
=128
8ff#
8gg
8ff
8ddd
8aa
8bb-
=129
8ff#
8gg
8cc
8ee-
16dd
16cc
16b-
16a
=130
8b-
8f
8d
8dd
8ee-
8dd
=131
8dd
8cc
8b-
8ff
8ee
8ff
=132
16cc
16b
16cc
16dd
8cc
8cc
8dd
8cc
=133
4.ee-
8ee-
8dd
8dd
=134
4.cc
8cc
8b-
8b-
=135
4.a
8a
8cc
8b-
=136
4.ee-
8dd
8ff
8ee-
=137
4.gg
8gg
8ff
8ee-
=138
8dd
16dd
16cc#
8dd
16dd
16cc#
8dd
16dd
16cc#
=139
16dd
16ee-
16ff
16gg
16aa-
16bb-
16ccc
16bb-
16aa-
16gg
16ff
16ee-
=140
8dd
16dd
16cc#
8dd
16dd
16cc#
8dd
8dd
=141
16ee-
16ff
16gg
16ff
16ee-
16dd
16cc
16dd
16ee-
16dd
16cc
16b-
=142
16a
16b-
16cc
16b-
16a
16g
16f
16e
16f
16e-
16d
16c
=143
16d
16B-
16c
16d
16e-
16f
16g
16a
16b-
16cc
16dd
16ee-
=144
16ff
16ee
16bb-
16gg
16ff
16ee
16gg
16ff
16ee
16dd
16cc
16b-
=145
16a
16cc
16b-
16dd
16cc
16ee
16dd
16ff
16ee
16gg
16ff
16aa
=146
4f
8r
8ff
8gg
8ff
=147
8ff
8ee-
8dd
8dd
8ee-
8dd
=148
8dd
8cc
8b-
8b-
8cc
8b-
=149
16b-
16a
16cc
16b-
16a
16b-
16cc
16dd
16cc
16dd
16ee-
16ff
=150
8gg
8ff
8ff
8ff
8ff
8ff
=151
8gg
8ff
8ff
8ff
8ff
8ff
=152
8gg
8ff
8ff
8ff
8ff
8ff
=153
2ff
4bb-[
=154
4bb-]
4aa
4ccc[
=155
4ccc]
4bb-
4ddd[
=156
4ddd]
4ccc
4eee-[
=157
16eee-]
16ccc
16aa
16ccc
16eee-
16ccc
16aa
16ccc
16eee-
16ccc
16aa
16ee-
=158
16dd
16ee-
16ff
16ee-
16dd
16cc
16b-
16a
16g
16f
16e-
16d
=159
8c
8e-
8g
8cc
8ee-
8gg
=160
8e
8g
8b-
8dd-
8ee
8gg
=161
8bb-
16ccc#
16ddd
16aa
16bb-
16ee
16ff
16cc#
16dd
16a
16b-
=162
4f
4.ccc
16bb-
16ccc
=163
8bb-
8ddd
4.ee-
16dd
16ee-
=164
8dd
8ff
4.a
16g
16a
=165
8b-
8dd
4.A
16G
16A
=166
4B-
8r
8dd
8ee-
8dd
=167
8dd
8cc
8b-
8ff
8gg
8ff
=168
8ff
8ee-
8dd
8ff
8gg
8ff
=169
2.aa
=170
8bb-
2r
8r
==
*-
